report_00007_2020-12-11T15:55:29.892Z/meta/score/comparison/line/11_vs_12.svg

<svg width="640" height="500" xmlns="http://www.w3.org/2000/svg" xmlns:xlink="http://www.w3.org/1999/xlink"><path fill="#fff" d="M0 0h640v500H0z"/><defs><path id="d" stroke-width=".222" stroke="currentColor" d="M-1-1h2v2h-2z"/><path id="b" stroke-width=".222" stroke="currentColor" d="M0-1.33l-1.33 2h2.66z"/><path id="f" stroke-width=".222" stroke="currentColor" d="M0 1.33L1.265.411.782-1.067l-1.564-.009-.483 1.487z"/><use xlink:href="#b" id="c" stroke="currentColor" transform="rotate(180)"/><use xlink:href="#d" id="e" stroke="currentColor" transform="rotate(45)"/><circle id="a" stroke-width=".222" stroke="currentColor" cx="0" cy="0" r="1"/></defs><g fill="none" color="#000" stroke="currentColor"><path stroke="#000" d="M70.5 415.9h9m535.5 0h-9"/><text transform="translate(62.2 419.8)" stroke="none" fill="#000" font-family="Arial" font-size="12" text-anchor="end"><tspan>0.91</tspan></text></g><g fill="none" color="#000" stroke="currentColor"><path stroke="#000" d="M70.5 374h9m535.5 0h-9"/><text transform="translate(62.2 377.9)" stroke="none" fill="#000" font-family="Arial" font-size="12" text-anchor="end"><tspan>0.915</tspan></text></g><g fill="none" color="#000" stroke="currentColor"><path stroke="#000" d="M70.5 332.2h9m535.5 0h-9"/><text transform="translate(62.2 336.1)" stroke="none" fill="#000" font-family="Arial" font-size="12" text-anchor="end"><tspan>0.92</tspan></text></g><g fill="none" color="#000" stroke="currentColor"><path stroke="#000" d="M70.5 290.3h9m535.5 0h-9"/><text transform="translate(62.2 294.2)" stroke="none" fill="#000" font-family="Arial" font-size="12" text-anchor="end"><tspan>0.925</tspan></text></g><g fill="none" color="#000" stroke="currentColor"><path stroke="#000" d="M70.5 248.5h9m535.5 0h-9"/><text transform="translate(62.2 252.4)" stroke="none" fill="#000" font-family="Arial" font-size="12" text-anchor="end"><tspan>0.93</tspan></text></g><g fill="none" color="#000" stroke="currentColor"><path stroke="#000" d="M70.5 206.7h9m535.5 0h-9"/><text transform="translate(62.2 210.6)" stroke="none" fill="#000" font-family="Arial" font-size="12" text-anchor="end"><tspan>0.935</tspan></text></g><g fill="none" color="#000" stroke="currentColor"><path stroke="#000" d="M70.5 164.8h9m535.5 0h-9"/><text transform="translate(62.2 168.7)" stroke="none" fill="#000" font-family="Arial" font-size="12" text-anchor="end"><tspan>0.94</tspan></text></g><g fill="none" color="#000" stroke="currentColor"><path stroke="#000" d="M70.5 123h9m535.5 0h-9"/><text transform="translate(62.2 126.9)" stroke="none" fill="#000" font-family="Arial" font-size="12" text-anchor="end"><tspan>0.945</tspan></text></g><g fill="none" color="#000" stroke="currentColor"><path stroke="#000" d="M70.5 81.2h9m535.5 0h-9"/><text transform="translate(62.2 85.1)" stroke="none" fill="#000" font-family="Arial" font-size="12" text-anchor="end"><tspan>0.95</tspan></text></g><g fill="none" color="#000" stroke="currentColor"><path stroke="#000" d="M70.5 39.3h9m535.5 0h-9"/><text transform="translate(62.2 43.2)" stroke="none" fill="#000" font-family="Arial" font-size="12" text-anchor="end"><tspan>0.955</tspan></text></g><g fill="none" color="#000" stroke="currentColor"><path stroke="#000" d="M70.5 428v-9m0-400.9v9"/><text transform="translate(70.5 449.9)" stroke="none" fill="#000" font-family="Arial" font-size="12" text-anchor="middle"><tspan>0</tspan></text></g><g fill="none" color="#000" stroke="currentColor"><path stroke="#000" d="M125.5 428v-9m0-400.9v9"/><text transform="translate(125.5 449.9)" stroke="none" fill="#000" font-family="Arial" font-size="12" text-anchor="middle"><tspan>10</tspan></text></g><g fill="none" color="#000" stroke="currentColor"><path stroke="#000" d="M180.5 428v-9m0-400.9v9"/><text transform="translate(180.5 449.9)" stroke="none" fill="#000" font-family="Arial" font-size="12" text-anchor="middle"><tspan>20</tspan></text></g><g fill="none" color="#000" stroke="currentColor"><path stroke="#000" d="M235.5 428v-9m0-400.9v9"/><text transform="translate(235.5 449.9)" stroke="none" fill="#000" font-family="Arial" font-size="12" text-anchor="middle"><tspan>30</tspan></text></g><g fill="none" color="#000" stroke="currentColor"><path stroke="#000" d="M290.5 428v-9m0-400.9v9"/><text transform="translate(290.5 449.9)" stroke="none" fill="#000" font-family="Arial" font-size="12" text-anchor="middle"><tspan>40</tspan></text></g><g fill="none" color="#000" stroke="currentColor"><path stroke="#000" d="M345.5 428v-9m0-400.9v9"/><text transform="translate(345.5 449.9)" stroke="none" fill="#000" font-family="Arial" font-size="12" text-anchor="middle"><tspan>50</tspan></text></g><g fill="none" color="#000" stroke="currentColor"><path stroke="#000" d="M400.5 428v-9m0-400.9v9"/><text transform="translate(400.5 449.9)" stroke="none" fill="#000" font-family="Arial" font-size="12" text-anchor="middle"><tspan>60</tspan></text></g><g fill="none" color="#000" stroke="currentColor"><path stroke="#000" d="M455.5 428v-9m0-400.9v9"/><text transform="translate(455.5 449.9)" stroke="none" fill="#000" font-family="Arial" font-size="12" text-anchor="middle"><tspan>70</tspan></text></g><g fill="none" color="#000" stroke="currentColor"><path stroke="#000" d="M510.5 428v-9m0-400.9v9"/><text transform="translate(510.5 449.9)" stroke="none" fill="#000" font-family="Arial" font-size="12" text-anchor="middle"><tspan>80</tspan></text></g><g fill="none" color="#000" stroke="currentColor"><path stroke="#000" d="M565.5 428v-9m0-400.9v9"/><text transform="translate(565.5 449.9)" stroke="none" fill="#000" font-family="Arial" font-size="12" text-anchor="middle"><tspan>90</tspan></text></g><path stroke="#000" d="M70.5 18.1V428H615V18.1H70.5z" fill="none" color="#000"/><text transform="translate(516.7 467.9)" stroke="none" fill="#000" font-family="Arial" font-size="12" text-anchor="end" color="#000"><tspan>pages+cached+noexternal+nofonts+nosvg+noimg</tspan></text><path stroke="#9400D3" d="M525 464h42.2M70.5 182.3l5.5 36.6 5.5 3.1L87 414.8l5.5-193.1 5.5-40.6 5.5-29.6 5.5 31.1 5.5 34.3 5.5 4.4 5.5.3 5.5-.3 5.5-41.5 5.5 39.7 5.5-66.9 5.5 261.5 5.5-293L164 221l5.5-40 5.5 87.4 5.5-200.7 5.5 151 5.5 52.7 5.5-.8h5.5l5.5-51.9 5.5 1.2 5.5 8.7 5.5-9 5.5-.4 5.5-139.5 5.5 77.6 5.5 74.3 5.5 39.2 5.5-49.1 5.5 60.5 5.5-61.5 5.5-2.5 5.5 91.7 5.5-91.1 5.5.1 5.5.2 5.5 4.8 5.5 57.4 5.5-200.7 5.5 70.7 5.5 66.9 5.5 53.7 5.5-48.6 5.5-3.4 5.5-191.6L351 220l5.5 40.9L362 219l5.5 3.5 5.5-2 5.5 196.7L384 271l5.5-52 5.5-98.2 5.5 150.7L406 65.4l5.5 354.2 5.5-271 5.5 119 5.5 35.3 5.5-237.2 5.5 217 5.5-65.3 5.5 54.7 5.5-23.8 5.5 32.1 5.5-253.9 5.5 269.8 5.5-215.2 5.5 137.5 5.5 11.1L494 64l5.5 117 5.5 230.5 5.5-231.6L516 31.2l5.5 36.7 5.5 344 5.5-191.9 5.5-37.5 5.5 38.8 5.5 81.6 5.5 112.5 5.5-.3 5.5-345.7 5.5 211.1 5.5-98.3 5.5-.8 5.5 37.8 5.5-.8 5.5-36.1L604 78.5l5.5 141.4 5.5-68.7" fill="none" color="#000"/><text transform="translate(516.7 485.9)" stroke="none" fill="#000" font-family="Arial" font-size="12" text-anchor="end" color="#000"><tspan>pages+cached+noexternal+nofonts+nosvg+noimg+nocss</tspan></text><path stroke="#009E73" d="M525 482h42.2M70.5 189.5l5.5.7 5.5-2.2L87 299.3l5.5-106.2 5.5-3.8 5.5 2.2 5.5.4 5.5-1.3 5.5 1 5.5 103.7 5.5-1.2 5.5-96.1 5.5-7.1 5.5.3 5.5-2.6 5.5.9 5.5 10.8 5.5-10.9 5.5 3.4 5.5-6.9 5.5 147.9 5.5-140.5 5.5-6 5.5-.1 5.5 5.2 5.5-1.2 5.5 1.2 5.5 103 5.5-104.6 5.5-3.1 5.5 1.8 5.5 4.9 5.5-4.1 5.5 3.9 5.5-2.7 5.5-1.9 5.5 3.4 5.5-4.5 5.5 3.8 5.5-3 5.5.8 5.5-3.8 5.5 147 5.5-142.4h5.5l5.5-.9 5.5.1 5.5 139.7 5.5-136.7 5.5-3 5.5-.2 5.5-.1 5.5-.9 5.5 4.1 5.5-7 5.5 2 5.5.3 5.5 1 5.5 2.4 5.5 1.6 5.5-4.9 5.5-1.2 5.5 145.5 5.5-140.6 5.5-3.1 5.5 110.9 5.5-112.2 5.5 3.5 5.5-2.4 5.5-.6 5.5 6.4 5.5-5.5 5.5-.7 5.5 9.6 5.5-6.2 5.5-3.9 5.5 1.3 5.5-.3 5.5 5.9 5.5-5.5 5.5 2.3 5.5-2 5.5-.4 5.5 2.8 5.5 1 5.5-4 5.5.6 5.5 3.8 5.5-3.1 5.5-1.1 5.5 3.4 5.5-3.4 5.5-2 5.5 2.2 5.5-1.3 5.5 1.9 5.5 1.5 5.5-4.2 5.5 3.2" fill="none" color="#000"/><g fill="none" color="#000" stroke="currentColor"><path stroke="#000" d="M70.5 18.1V428H615V18.1H70.5z"/></g></svg>

<?xml version="1.0" encoding="utf-8"  standalone="no"?>
<svg 
 width="640" height="500"
 viewBox="0 0 640 500"
 xmlns="http://www.w3.org/2000/svg"
 xmlns:xlink="http://www.w3.org/1999/xlink"
>

<title>Gnuplot</title>
<desc>Produced by GNUPLOT 5.4 patchlevel 0 </desc>

<g id="gnuplot_canvas">

<rect x="0" y="0" width="640" height="500" fill="#ffffff"/>
<defs>

	<circle id='gpDot' r='0.5' stroke-width='0.5' stroke='currentColor'/>
	<path id='gpPt0' stroke-width='0.222' stroke='currentColor' d='M-1,0 h2 M0,-1 v2'/>
	<path id='gpPt1' stroke-width='0.222' stroke='currentColor' d='M-1,-1 L1,1 M1,-1 L-1,1'/>
	<path id='gpPt2' stroke-width='0.222' stroke='currentColor' d='M-1,0 L1,0 M0,-1 L0,1 M-1,-1 L1,1 M-1,1 L1,-1'/>
	<rect id='gpPt3' stroke-width='0.222' stroke='currentColor' x='-1' y='-1' width='2' height='2'/>
	<rect id='gpPt4' stroke-width='0.222' stroke='currentColor' fill='currentColor' x='-1' y='-1' width='2' height='2'/>
	<circle id='gpPt5' stroke-width='0.222' stroke='currentColor' cx='0' cy='0' r='1'/>
	<use xlink:href='#gpPt5' id='gpPt6' fill='currentColor' stroke='none'/>
	<path id='gpPt7' stroke-width='0.222' stroke='currentColor' d='M0,-1.33 L-1.33,0.67 L1.33,0.67 z'/>
	<use xlink:href='#gpPt7' id='gpPt8' fill='currentColor' stroke='none'/>
	<use xlink:href='#gpPt7' id='gpPt9' stroke='currentColor' transform='rotate(180)'/>
	<use xlink:href='#gpPt9' id='gpPt10' fill='currentColor' stroke='none'/>
	<use xlink:href='#gpPt3' id='gpPt11' stroke='currentColor' transform='rotate(45)'/>
	<use xlink:href='#gpPt11' id='gpPt12' fill='currentColor' stroke='none'/>
	<path id='gpPt13' stroke-width='0.222' stroke='currentColor' d='M0,1.330 L1.265,0.411 L0.782,-1.067 L-0.782,-1.076 L-1.265,0.411 z'/>
	<use xlink:href='#gpPt13' id='gpPt14' fill='currentColor' stroke='none'/>
	<filter id='textbox' filterUnits='objectBoundingBox' x='0' y='0' height='1' width='1'>
	  <feFlood flood-color='#FFFFFF' flood-opacity='1' result='bgnd'/>
	  <feComposite in='SourceGraphic' in2='bgnd' operator='atop'/>
	</filter>
	<filter id='greybox' filterUnits='objectBoundingBox' x='0' y='0' height='1' width='1'>
	  <feFlood flood-color='lightgrey' flood-opacity='1' result='grey'/>
	  <feComposite in='SourceGraphic' in2='grey' operator='atop'/>
	</filter>
</defs>
<g fill="none" color="#FFFFFF" stroke="black" stroke-width="1.00" stroke-linecap="butt" stroke-linejoin="miter">
</g>
<g fill="none" color="black" stroke="currentColor" stroke-width="1.00" stroke-linecap="butt" stroke-linejoin="miter">
	<path stroke='black'  d='M70.5,415.9 L79.5,415.9 M615.0,415.9 L606.0,415.9  '/>	<g transform="translate(62.2,419.8)" stroke="none" fill="black" font-family="Arial" font-size="12.00"  text-anchor="end">
		<text><tspan font-family="Arial" > 0.91</tspan></text>
	</g>
</g>
<g fill="none" color="black" stroke="currentColor" stroke-width="1.00" stroke-linecap="butt" stroke-linejoin="miter">
	<path stroke='black'  d='M70.5,374.0 L79.5,374.0 M615.0,374.0 L606.0,374.0  '/>	<g transform="translate(62.2,377.9)" stroke="none" fill="black" font-family="Arial" font-size="12.00"  text-anchor="end">
		<text><tspan font-family="Arial" > 0.915</tspan></text>
	</g>
</g>
<g fill="none" color="black" stroke="currentColor" stroke-width="1.00" stroke-linecap="butt" stroke-linejoin="miter">
	<path stroke='black'  d='M70.5,332.2 L79.5,332.2 M615.0,332.2 L606.0,332.2  '/>	<g transform="translate(62.2,336.1)" stroke="none" fill="black" font-family="Arial" font-size="12.00"  text-anchor="end">
		<text><tspan font-family="Arial" > 0.92</tspan></text>
	</g>
</g>
<g fill="none" color="black" stroke="currentColor" stroke-width="1.00" stroke-linecap="butt" stroke-linejoin="miter">
	<path stroke='black'  d='M70.5,290.3 L79.5,290.3 M615.0,290.3 L606.0,290.3  '/>	<g transform="translate(62.2,294.2)" stroke="none" fill="black" font-family="Arial" font-size="12.00"  text-anchor="end">
		<text><tspan font-family="Arial" > 0.925</tspan></text>
	</g>
</g>
<g fill="none" color="black" stroke="currentColor" stroke-width="1.00" stroke-linecap="butt" stroke-linejoin="miter">
	<path stroke='black'  d='M70.5,248.5 L79.5,248.5 M615.0,248.5 L606.0,248.5  '/>	<g transform="translate(62.2,252.4)" stroke="none" fill="black" font-family="Arial" font-size="12.00"  text-anchor="end">
		<text><tspan font-family="Arial" > 0.93</tspan></text>
	</g>
</g>
<g fill="none" color="black" stroke="currentColor" stroke-width="1.00" stroke-linecap="butt" stroke-linejoin="miter">
	<path stroke='black'  d='M70.5,206.7 L79.5,206.7 M615.0,206.7 L606.0,206.7  '/>	<g transform="translate(62.2,210.6)" stroke="none" fill="black" font-family="Arial" font-size="12.00"  text-anchor="end">
		<text><tspan font-family="Arial" > 0.935</tspan></text>
	</g>
</g>
<g fill="none" color="black" stroke="currentColor" stroke-width="1.00" stroke-linecap="butt" stroke-linejoin="miter">
	<path stroke='black'  d='M70.5,164.8 L79.5,164.8 M615.0,164.8 L606.0,164.8  '/>	<g transform="translate(62.2,168.7)" stroke="none" fill="black" font-family="Arial" font-size="12.00"  text-anchor="end">
		<text><tspan font-family="Arial" > 0.94</tspan></text>
	</g>
</g>
<g fill="none" color="black" stroke="currentColor" stroke-width="1.00" stroke-linecap="butt" stroke-linejoin="miter">
	<path stroke='black'  d='M70.5,123.0 L79.5,123.0 M615.0,123.0 L606.0,123.0  '/>	<g transform="translate(62.2,126.9)" stroke="none" fill="black" font-family="Arial" font-size="12.00"  text-anchor="end">
		<text><tspan font-family="Arial" > 0.945</tspan></text>
	</g>
</g>
<g fill="none" color="black" stroke="currentColor" stroke-width="1.00" stroke-linecap="butt" stroke-linejoin="miter">
	<path stroke='black'  d='M70.5,81.2 L79.5,81.2 M615.0,81.2 L606.0,81.2  '/>	<g transform="translate(62.2,85.1)" stroke="none" fill="black" font-family="Arial" font-size="12.00"  text-anchor="end">
		<text><tspan font-family="Arial" > 0.95</tspan></text>
	</g>
</g>
<g fill="none" color="black" stroke="currentColor" stroke-width="1.00" stroke-linecap="butt" stroke-linejoin="miter">
	<path stroke='black'  d='M70.5,39.3 L79.5,39.3 M615.0,39.3 L606.0,39.3  '/>	<g transform="translate(62.2,43.2)" stroke="none" fill="black" font-family="Arial" font-size="12.00"  text-anchor="end">
		<text><tspan font-family="Arial" > 0.955</tspan></text>
	</g>
</g>
<g fill="none" color="black" stroke="currentColor" stroke-width="1.00" stroke-linecap="butt" stroke-linejoin="miter">
	<path stroke='black'  d='M70.5,428.0 L70.5,419.0 M70.5,18.1 L70.5,27.1  '/>	<g transform="translate(70.5,449.9)" stroke="none" fill="black" font-family="Arial" font-size="12.00"  text-anchor="middle">
		<text><tspan font-family="Arial" > 0</tspan></text>
	</g>
</g>
<g fill="none" color="black" stroke="currentColor" stroke-width="1.00" stroke-linecap="butt" stroke-linejoin="miter">
	<path stroke='black'  d='M125.5,428.0 L125.5,419.0 M125.5,18.1 L125.5,27.1  '/>	<g transform="translate(125.5,449.9)" stroke="none" fill="black" font-family="Arial" font-size="12.00"  text-anchor="middle">
		<text><tspan font-family="Arial" > 10</tspan></text>
	</g>
</g>
<g fill="none" color="black" stroke="currentColor" stroke-width="1.00" stroke-linecap="butt" stroke-linejoin="miter">
	<path stroke='black'  d='M180.5,428.0 L180.5,419.0 M180.5,18.1 L180.5,27.1  '/>	<g transform="translate(180.5,449.9)" stroke="none" fill="black" font-family="Arial" font-size="12.00"  text-anchor="middle">
		<text><tspan font-family="Arial" > 20</tspan></text>
	</g>
</g>
<g fill="none" color="black" stroke="currentColor" stroke-width="1.00" stroke-linecap="butt" stroke-linejoin="miter">
	<path stroke='black'  d='M235.5,428.0 L235.5,419.0 M235.5,18.1 L235.5,27.1  '/>	<g transform="translate(235.5,449.9)" stroke="none" fill="black" font-family="Arial" font-size="12.00"  text-anchor="middle">
		<text><tspan font-family="Arial" > 30</tspan></text>
	</g>
</g>
<g fill="none" color="black" stroke="currentColor" stroke-width="1.00" stroke-linecap="butt" stroke-linejoin="miter">
	<path stroke='black'  d='M290.5,428.0 L290.5,419.0 M290.5,18.1 L290.5,27.1  '/>	<g transform="translate(290.5,449.9)" stroke="none" fill="black" font-family="Arial" font-size="12.00"  text-anchor="middle">
		<text><tspan font-family="Arial" > 40</tspan></text>
	</g>
</g>
<g fill="none" color="black" stroke="currentColor" stroke-width="1.00" stroke-linecap="butt" stroke-linejoin="miter">
	<path stroke='black'  d='M345.5,428.0 L345.5,419.0 M345.5,18.1 L345.5,27.1  '/>	<g transform="translate(345.5,449.9)" stroke="none" fill="black" font-family="Arial" font-size="12.00"  text-anchor="middle">
		<text><tspan font-family="Arial" > 50</tspan></text>
	</g>
</g>
<g fill="none" color="black" stroke="currentColor" stroke-width="1.00" stroke-linecap="butt" stroke-linejoin="miter">
	<path stroke='black'  d='M400.5,428.0 L400.5,419.0 M400.5,18.1 L400.5,27.1  '/>	<g transform="translate(400.5,449.9)" stroke="none" fill="black" font-family="Arial" font-size="12.00"  text-anchor="middle">
		<text><tspan font-family="Arial" > 60</tspan></text>
	</g>
</g>
<g fill="none" color="black" stroke="currentColor" stroke-width="1.00" stroke-linecap="butt" stroke-linejoin="miter">
	<path stroke='black'  d='M455.5,428.0 L455.5,419.0 M455.5,18.1 L455.5,27.1  '/>	<g transform="translate(455.5,449.9)" stroke="none" fill="black" font-family="Arial" font-size="12.00"  text-anchor="middle">
		<text><tspan font-family="Arial" > 70</tspan></text>
	</g>
</g>
<g fill="none" color="black" stroke="currentColor" stroke-width="1.00" stroke-linecap="butt" stroke-linejoin="miter">
	<path stroke='black'  d='M510.5,428.0 L510.5,419.0 M510.5,18.1 L510.5,27.1  '/>	<g transform="translate(510.5,449.9)" stroke="none" fill="black" font-family="Arial" font-size="12.00"  text-anchor="middle">
		<text><tspan font-family="Arial" > 80</tspan></text>
	</g>
</g>
<g fill="none" color="black" stroke="currentColor" stroke-width="1.00" stroke-linecap="butt" stroke-linejoin="miter">
	<path stroke='black'  d='M565.5,428.0 L565.5,419.0 M565.5,18.1 L565.5,27.1  '/>	<g transform="translate(565.5,449.9)" stroke="none" fill="black" font-family="Arial" font-size="12.00"  text-anchor="middle">
		<text><tspan font-family="Arial" > 90</tspan></text>
	</g>
</g>
<g fill="none" color="black" stroke="currentColor" stroke-width="1.00" stroke-linecap="butt" stroke-linejoin="miter">
</g>
<g fill="none" color="black" stroke="currentColor" stroke-width="1.00" stroke-linecap="butt" stroke-linejoin="miter">
	<path stroke='black'  d='M70.5,18.1 L70.5,428.0 L615.0,428.0 L615.0,18.1 L70.5,18.1 Z  '/></g>
<g fill="none" color="black" stroke="currentColor" stroke-width="1.00" stroke-linecap="butt" stroke-linejoin="miter">
</g>
	<g id="gnuplot_plot_1" ><title>pages+cached+noexternal+nofonts+nosvg+noimg</title>
<g fill="none" color="black" stroke="currentColor" stroke-width="1.00" stroke-linecap="butt" stroke-linejoin="miter">
	<g transform="translate(516.7,467.9)" stroke="none" fill="black" font-family="Arial" font-size="12.00"  text-anchor="end">
		<text><tspan font-family="Arial" >pages+cached+noexternal+nofonts+nosvg+noimg</tspan></text>
	</g>
</g>
<g fill="none" color="black" stroke="currentColor" stroke-width="1.00" stroke-linecap="butt" stroke-linejoin="miter">
	<path stroke='rgb(148,   0, 211)'  d='M525.0,464.0 L567.2,464.0 M70.5,182.3 L76.0,218.9 L81.5,222.0 L87.0,414.8 L92.5,221.7 L98.0,181.1
		L103.5,151.5 L109.0,182.6 L114.5,216.9 L120.0,221.3 L125.5,221.6 L131.0,221.3 L136.5,179.8 L142.0,219.5
		L147.5,152.6 L153.0,414.1 L158.5,121.1 L164.0,221.0 L169.5,181.0 L175.0,268.4 L180.5,67.7 L186.0,218.7
		L191.5,271.4 L197.0,270.6 L202.5,270.6 L208.0,218.7 L213.5,219.9 L219.0,228.6 L224.5,219.6 L230.0,219.2
		L235.5,79.7 L241.0,157.3 L246.5,231.6 L252.0,270.8 L257.5,221.7 L263.0,282.2 L268.5,220.7 L274.0,218.2
		L279.5,309.9 L285.0,218.8 L290.5,218.9 L296.0,219.1 L301.5,223.9 L307.0,281.3 L312.5,80.6 L318.0,151.3
		L323.5,218.2 L329.0,271.9 L334.5,223.3 L340.0,219.9 L345.5,28.3 L351.0,220.0 L356.5,260.9 L362.0,219.0
		L367.5,222.5 L373.0,220.5 L378.5,417.2 L384.0,271.0 L389.5,219.0 L395.0,120.8 L400.5,271.5 L406.0,65.4
		L411.5,419.6 L417.0,148.6 L422.5,267.6 L428.0,302.9 L433.5,65.7 L439.0,282.7 L444.5,217.4 L450.0,272.1
		L455.5,248.3 L461.0,280.4 L466.5,26.5 L472.0,296.3 L477.5,81.1 L483.0,218.6 L488.5,229.7 L494.0,64.0
		L499.5,181.0 L505.0,411.5 L510.5,179.9 L516.0,31.2 L521.5,67.9 L527.0,411.9 L532.5,220.0 L538.0,182.5
		L543.5,221.3 L549.0,302.9 L554.5,415.4 L560.0,415.1 L565.5,69.4 L571.0,280.5 L576.5,182.2 L582.0,181.4
		L587.5,219.2 L593.0,218.4 L598.5,182.3 L604.0,78.5 L609.5,219.9 L615.0,151.2  '/></g>
	</g>
	<g id="gnuplot_plot_2" ><title>pages+cached+noexternal+nofonts+nosvg+noimg+nocss</title>
<g fill="none" color="black" stroke="currentColor" stroke-width="1.00" stroke-linecap="butt" stroke-linejoin="miter">
	<g transform="translate(516.7,485.9)" stroke="none" fill="black" font-family="Arial" font-size="12.00"  text-anchor="end">
		<text><tspan font-family="Arial" >pages+cached+noexternal+nofonts+nosvg+noimg+nocss</tspan></text>
	</g>
</g>
<g fill="none" color="black" stroke="currentColor" stroke-width="1.00" stroke-linecap="butt" stroke-linejoin="miter">
	<path stroke='rgb(  0, 158, 115)'  d='M525.0,482.0 L567.2,482.0 M70.5,189.5 L76.0,190.2 L81.5,188.0 L87.0,299.3 L92.5,193.1 L98.0,189.3
		L103.5,191.5 L109.0,191.9 L114.5,190.6 L120.0,191.6 L125.5,295.3 L131.0,294.1 L136.5,198.0 L142.0,190.9
		L147.5,191.2 L153.0,188.6 L158.5,189.5 L164.0,200.3 L169.5,189.4 L175.0,192.8 L180.5,185.9 L186.0,333.8
		L191.5,193.3 L197.0,187.3 L202.5,187.2 L208.0,192.4 L213.5,191.2 L219.0,192.4 L224.5,295.4 L230.0,190.8
		L235.5,187.7 L241.0,189.5 L246.5,194.4 L252.0,190.3 L257.5,194.2 L263.0,191.5 L268.5,189.6 L274.0,193.0
		L279.5,188.5 L285.0,192.3 L290.5,189.3 L296.0,190.1 L301.5,186.3 L307.0,333.3 L312.5,190.9 L318.0,190.9
		L323.5,190.0 L329.0,190.1 L334.5,329.8 L340.0,193.1 L345.5,190.1 L351.0,189.9 L356.5,189.8 L362.0,188.9
		L367.5,193.0 L373.0,186.0 L378.5,188.0 L384.0,188.3 L389.5,189.3 L395.0,191.7 L400.5,193.3 L406.0,188.4
		L411.5,187.2 L417.0,332.7 L422.5,192.1 L428.0,189.0 L433.5,299.9 L439.0,187.7 L444.5,191.2 L450.0,188.8
		L455.5,188.2 L461.0,194.6 L466.5,189.1 L472.0,188.4 L477.5,198.0 L483.0,191.8 L488.5,187.9 L494.0,189.2
		L499.5,188.9 L505.0,194.8 L510.5,189.3 L516.0,191.6 L521.5,189.6 L527.0,189.2 L532.5,192.0 L538.0,193.0
		L543.5,189.0 L549.0,189.6 L554.5,193.4 L560.0,190.3 L565.5,189.2 L571.0,192.6 L576.5,189.2 L582.0,187.2
		L587.5,189.4 L593.0,188.1 L598.5,190.0 L604.0,191.5 L609.5,187.3 L615.0,190.5  '/></g>
	</g>
<g fill="none" color="#FFFFFF" stroke="rgb(  0, 158, 115)" stroke-width="2.00" stroke-linecap="butt" stroke-linejoin="miter">
</g>
<g fill="none" color="black" stroke="currentColor" stroke-width="2.00" stroke-linecap="butt" stroke-linejoin="miter">
</g>
<g fill="none" color="black" stroke="black" stroke-width="1.00" stroke-linecap="butt" stroke-linejoin="miter">
</g>
<g fill="none" color="black" stroke="currentColor" stroke-width="1.00" stroke-linecap="butt" stroke-linejoin="miter">
	<path stroke='black'  d='M70.5,18.1 L70.5,428.0 L615.0,428.0 L615.0,18.1 L70.5,18.1 Z  '/></g>
<g fill="none" color="black" stroke="currentColor" stroke-width="1.00" stroke-linecap="butt" stroke-linejoin="miter">
</g>
</g>
</svg>
